images/icons/email_icon.svg

<svg xmlns="http://www.w3.org/2000/svg" width="45" height="45" fill="none"><circle cx="22.5" cy="22.5" r="22.5" fill="#1f4373"/><path fill="#fff" d="M36.25 15c0-1.375-1.237-2.5-2.75-2.5h-22c-1.512 0-2.75 1.125-2.75 2.5v15c0 1.375 1.238 2.5 2.75 2.5h22c1.513 0 2.75-1.125 2.75-2.5V15zm-2.75 0-11 6.25-11-6.25h22zm0 15h-22V17.5l11 6.25 11-6.25V30z"/></svg>

<svg width="45" height="45" viewBox="0 0 45 45" fill="none" xmlns="http://www.w3.org/2000/svg">
<circle cx="22.5" cy="22.5" r="22.5" fill="#1F4373"/>
<path d="M36.25 15C36.25 13.625 35.0125 12.5 33.5 12.5H11.5C9.9875 12.5 8.75 13.625 8.75 15V30C8.75 31.375 9.9875 32.5 11.5 32.5H33.5C35.0125 32.5 36.25 31.375 36.25 30V15ZM33.5 15L22.5 21.25L11.5 15H33.5ZM33.5 30H11.5V17.5L22.5 23.75L33.5 17.5V30Z" fill="white"/>
</svg>
